X: 1
T: Tending the Cattle with a Heavy Heart
R: slipjig
Z: 2010 John Chambers <jc:trillian.mit.edu>
S: JPG scan of MS of bagipe score, from John Cahill 2010-2-12
N: Chords by John Chambers
M: 6/8
L: 1/8
K: G
e \
| "G"dB<B B2A BG<G | "G"dB<B B"(#)"cd "C"efg \
| "G"dB<B B2A BG<G | "Am"e2A "G"dBG "D"A<A :|
e \
| "Em"B2B g2e "D"fed | "Em"B2B g2e "D"f3 \
| "Em"B2B g2e "D"edf | "Em"edB "Bm"B"(#)"cd "Em"e2 |]
e \
| "Em"B2B g2e "D"fed | "Em"B2B g2e "D"a3 \
| "D"def "C"g2e "D"f2d | "Am"e2A "D"ABd "C"efg |]
